src/assets/icons/money-muscle.svg

<svg xmlns="http://www.w3.org/2000/svg" width="124" height="124"><g fill-rule="evenodd"><path d="M62 6.4C31.3 6.4 6.4 31.3 6.4 62c0 30.7 25 55.6 55.6 55.6 30.7 0 55.6-25 55.6-55.6S92.7 6.4 62 6.4zM62 124C27.8 124 0 96.2 0 62S27.8 0 62 0s62 27.8 62 62-27.8 62-62 62z"/><path fill="currentColor" d="M99.6 57.6l-.3-.2c-5.9-2.9-13.4-2.2-18.8 1.8-3.2-1.6-6.8-2.4-10.6-2.3-5.1.1-9.8 1.9-13.3 4.9-1.9-1.2-4-2.1-6.3-2.6-.2 0-.4-.1-.5-.1.4-1.4.7-2.8.9-4.2.2-1.3.1-2.2.1-3.1 0-.6-.1-1.2-.1-1.9 0-1.6 0-2.3.2-4 .1-1.2.3-2.4.6-3.6l9.9 2.5h.2c.4.1.8 0 1.2-.3l10.5-7c.7-.5 1-1.5.6-2.2L72 31.6c.5-.7.8-1.5.9-2.4.2-1.6-.4-3.1-1.5-4.3l-7.3-7.5c-1.7-1.8-4.4-2.1-6.6-.9l-16.9 10-.5.3c-.7.2-1.7.6-2.5 1.2-1.7 1.1-2.5 2.9-3.2 4.5-.2.4-.4.9-.6 1.2L23 53.7c-.9 1.7-2 5.3-3.1 8.8-.6 1.9-1.1 3.7-1.5 4.7-.2.4-.3.8-.4 1.2-.6 1.5-1.1 3-2 4.2-.6.8-.4 1.9.3 2.4l4.5 3.4c12 9.3 27.5 16.5 41.5 19.5 1.1.2 2.5.5 4.1.6 1.4.2 5.1.6 9.6.6 6 0 13.3-.7 17.9-3.7.1 0 .2-.1.2-.1l.1-.1c.4-.3.6-.8.6-1.3 0-1-.8-1.7-1.7-1.7-.3 0-.5.1-.7.2l-.3.2c-4.5 2.8-12.7 3.4-19.8 3.1V91c3.9-.9 6.6-4.1 6.6-7.8 0-5.4-4.3-7.1-7.7-8.4-2.4-1-3.9-1.6-3.9-2.9 0-1.8 2.1-2.2 3.4-2.2 1.4 0 3 .6 4 1.5.1.1.2.1.3.1h.1c.1 0 .3-.1.4-.2l2.5-3.6c.2-.2.1-.5-.1-.7-1.7-1.3-3.5-2-5.5-2.3v-4c2.3.2 4.4.8 6.4 1.7 2.4 1.5 5.2 4.5 6.4 7.8.2.5.7.8 1.2.8.1 0 .3 0 .4-.1.6-.2 1-.9.8-1.6-1-2.8-2.9-5.2-4.9-7.1l.8-.5c4.3-2.8 10-3.2 14.5-1l.2.1c.3.2.6.3 1 .3 1 0 1.7-.8 1.7-1.7-.2-.7-.7-1.3-1.3-1.6zM61.2 71.9c0 2.7 1.2 4.7 3.8 6.2 1.1.6 2.3 1.1 3.4 1.5 2.4.9 4.4 1.7 4.4 3.6 0 1.6-1.3 2.7-3.2 2.7-2 0-4.1-1-5.6-2.6-.1-.1-.2-.2-.4-.2-.1 0-.3.1-.4.2L60 86.6c.1.1 0 .3 0 .4 0 .1.1.3.2.4 2 1.8 4.2 3 6.6 3.6v4.2c-1.4-.2-2.8-.4-3.8-.6-13.5-2.8-28.5-9.9-40.1-18.8l-3.2-2.5c.6-1.2 1.1-2.4 1.5-3.6.1-.4.3-.8.4-1.1.4-1.1 1-2.9 1.6-5 .9-3 2-6.7 2.8-8.1l10.7-19.9c.2-.4.5-.9.7-1.4.6-1.2 1.2-2.5 2.1-3.1.5-.3 1.1-.6 1.7-.8.1 0 .2-.1.3-.1l17.7-10.4c.7-.4 1.7-.3 2.3.3l7.3 7.5c.4.4.6.9.5 1.5 0 .4-.2.8-.5 1.1-3.4 1.6-7.3 3.4-8.2 3.5-.4 0-.4-.1-1.1-1.1l-.1-.6c0-.4 1.1-1.2 3.1-2.4.6-.3.8-1.1.4-1.7-.3-.6-1.1-.8-1.7-.4-2.1 1.2-3.8 2.4-4.2 3.9-.2.7 0 1.4.3 2l.2.3c.8 1.3 1.3 2.1 3 2.3h.1c1 0 3.7-1 8.1-3.1l.4.8.9 1.9-8.6 5.7-9.4-2.5-.6-.1c.5-1.2 1.1-2.3 1.8-3.2.4-.5.4-1.3-.2-1.8-.5-.4-1.3-.4-1.8.2-1.1 1.4-1.8 2.9-2.3 4.2l-.1.3c-.8 2.3-1.3 4.7-1.5 7.1-.2 1.8-.2 2.6-.2 4.3 0 .8 0 1.4.1 2 .1.8.1 1.5 0 2.6-.3 1.9-.8 3.8-1.5 5.6-.8 2-2.9 5-4.8 7.2-.5.5-.4 1.3.1 1.8.2.2.5.3.8.3.3 0 .7-.1.9-.4 1.8-2 3.6-4.6 4.7-6.7.3-.1 1.4.2 1.9.3l.3.1c1.7.4 3.3 1 4.9 2l.5.4c-1.5 1.8-2.7 3.7-3 4.6-.3.6 0 1.4.7 1.6.2.1.3.1.5.1.5 0 1-.3 1.2-.8.3-.8 1.8-3.1 3.6-5l.3-.3c.2-.2.5-.5.8-.7.1 0 .1-.1.1-.2 2.2-1.8 4.9-3.1 7.9-3.6v4.1c-3.8 1.1-5.9 3.8-5.9 7.1z"/></g></svg>

<svg xmlns="http://www.w3.org/2000/svg" width="124" height="124" viewBox="0 0 124 124">
  <g fill-rule="evenodd">
    <path d="M62,6.4 C31.3,6.4 6.4,31.3 6.4,62 C6.4,92.7 31.4,117.6 62,117.6 C92.7,117.6 117.6,92.6 117.6,62 C117.6,31.4 92.7,6.4 62,6.4 L62,6.4 Z M62,124 C27.8,124 0,96.2 0,62 C0,27.8 27.8,0 62,0 C96.2,0 124,27.8 124,62 C124,96.2 96.2,124 62,124 L62,124 Z"/>
    <path fill="currentColor" d="M99.6,57.6 L99.6,57.6 L99.3,57.4 C93.4,54.5 85.9,55.2 80.5,59.2 C77.3,57.6 73.7,56.8 69.9,56.9 C64.8,57 60.1,58.8 56.6,61.8 C54.7,60.6 52.6,59.7 50.3,59.2 C50.1,59.2 49.9,59.1 49.8,59.1 C50.2,57.7 50.5,56.3 50.7,54.9 C50.9,53.6 50.8,52.7 50.8,51.8 C50.8,51.2 50.7,50.6 50.7,49.9 C50.7,48.3 50.7,47.6 50.9,45.9 C51,44.7 51.2,43.5 51.5,42.3 L61.4,44.8 L61.6,44.8 C62,44.9 62.4,44.8 62.8,44.5 L73.3,37.5 C74,37 74.3,36 73.9,35.3 L72,31.6 C72.5,30.9 72.8,30.1 72.9,29.2 C73.1,27.6 72.5,26.1 71.4,24.9 L64.1,17.4 C62.4,15.6 59.7,15.3 57.5,16.5 L40.6,26.5 L40.1,26.8 C39.4,27 38.4,27.4 37.6,28 C35.9,29.1 35.1,30.9 34.4,32.5 C34.2,32.9 34,33.4 33.8,33.7 L23,53.7 C22.1,55.4 21,59 19.9,62.5 C19.3,64.4 18.8,66.2 18.4,67.2 C18.2,67.6 18.1,68 18,68.4 C17.4,69.9 16.9,71.4 16,72.6 C15.4,73.4 15.6,74.5 16.3,75 L20.8,78.4 C32.8,87.7 48.3,94.9 62.3,97.9 C63.4,98.1 64.8,98.4 66.4,98.5 C67.8,98.7 71.5,99.1 76,99.1 C82,99.1 89.3,98.4 93.9,95.4 L93.9,95.4 C94,95.4 94.1,95.3 94.1,95.3 L94.2,95.2 L94.2,95.2 C94.6,94.9 94.8,94.4 94.8,93.9 C94.8,92.9 94,92.2 93.1,92.2 C92.8,92.2 92.6,92.3 92.4,92.4 L92.4,92.4 L92.1,92.6 C87.6,95.4 79.4,96 72.3,95.7 L72.3,95.7 L72.3,91 C76.2,90.1 78.9,86.9 78.9,83.2 C78.9,77.8 74.6,76.1 71.2,74.8 C68.8,73.8 67.3,73.2 67.3,71.9 C67.3,70.1 69.4,69.7 70.7,69.7 C72.1,69.7 73.7,70.3 74.7,71.2 C74.8,71.3 74.9,71.3 75,71.3 L75.1,71.3 C75.2,71.3 75.4,71.2 75.5,71.1 L78,67.5 C78.2,67.3 78.1,67 77.9,66.8 C76.2,65.5 74.4,64.8 72.4,64.5 L72.4,60.5 C74.7,60.7 76.8,61.3 78.8,62.2 C81.2,63.7 84,66.7 85.2,70 C85.4,70.5 85.9,70.8 86.4,70.8 C86.5,70.8 86.7,70.8 86.8,70.7 C87.4,70.5 87.8,69.8 87.6,69.1 C86.6,66.3 84.7,63.9 82.7,62 L83.5,61.5 C87.8,58.7 93.5,58.3 98,60.5 L98.2,60.6 C98.5,60.8 98.8,60.9 99.2,60.9 C100.2,60.9 100.9,60.1 100.9,59.2 C100.7,58.5 100.2,57.9 99.6,57.6 Z M61.2,71.9 C61.2,74.6 62.4,76.6 65,78.1 C66.1,78.7 67.3,79.2 68.4,79.6 C70.8,80.5 72.8,81.3 72.8,83.2 C72.8,84.8 71.5,85.9 69.6,85.9 C67.6,85.9 65.5,84.9 64,83.3 C63.9,83.2 63.8,83.1 63.6,83.1 L63.6,83.1 C63.5,83.1 63.3,83.2 63.2,83.3 L60,86.6 C60.1,86.7 60,86.9 60,87 C60,87.1 60.1,87.3 60.2,87.4 C62.2,89.2 64.4,90.4 66.8,91 L66.8,95.2 C65.4,95 64,94.8 63,94.6 C49.5,91.8 34.5,84.7 22.9,75.8 L19.7,73.3 C20.3,72.1 20.8,70.9 21.2,69.7 C21.3,69.3 21.5,68.9 21.6,68.6 C22,67.5 22.6,65.7 23.2,63.6 C24.1,60.6 25.2,56.9 26,55.5 L36.7,35.6 C36.9,35.2 37.2,34.7 37.4,34.2 C38,33 38.6,31.7 39.5,31.1 C40,30.8 40.6,30.5 41.2,30.3 C41.3,30.3 41.4,30.2 41.5,30.2 L59.2,19.8 C59.9,19.4 60.9,19.5 61.5,20.1 L68.8,27.6 C69.2,28 69.4,28.5 69.3,29.1 C69.3,29.5 69.1,29.9 68.8,30.2 C65.4,31.8 61.5,33.6 60.6,33.7 C60.2,33.7 60.2,33.6 59.5,32.6 L59.4,32 C59.4,31.6 60.5,30.8 62.5,29.6 C63.1,29.3 63.3,28.5 62.9,27.9 C62.6,27.3 61.8,27.1 61.2,27.5 C59.1,28.7 57.4,29.9 57,31.4 C56.8,32.1 57,32.8 57.3,33.4 L57.5,33.7 C58.3,35 58.8,35.8 60.5,36 L60.6,36 C61.6,36 64.3,35 68.7,32.9 L69.1,33.7 L70,35.6 L61.4,41.3 L52,38.8 L51.4,38.7 C51.9,37.5 52.5,36.4 53.2,35.5 C53.6,35 53.6,34.2 53,33.7 C52.5,33.3 51.7,33.3 51.2,33.9 C50.1,35.3 49.4,36.8 48.9,38.1 L48.9,38.1 L48.8,38.4 C48,40.7 47.5,43.1 47.3,45.5 C47.1,47.3 47.1,48.1 47.1,49.8 C47.1,50.6 47.1,51.2 47.2,51.8 C47.3,52.6 47.3,53.3 47.2,54.4 C46.9,56.3 46.4,58.2 45.7,60 L45.7,60 C44.9,62 42.8,65 40.9,67.2 C40.4,67.7 40.5,68.5 41,69 C41.2,69.2 41.5,69.3 41.8,69.3 C42.1,69.3 42.5,69.2 42.7,68.9 C44.5,66.9 46.3,64.3 47.4,62.2 C47.7,62.1 48.8,62.4 49.3,62.5 L49.6,62.6 C51.3,63 52.9,63.6 54.5,64.6 L55,65 C53.5,66.8 52.3,68.7 52,69.6 C51.7,70.2 52,71 52.7,71.2 C52.9,71.3 53,71.3 53.2,71.3 C53.7,71.3 54.2,71 54.4,70.5 C54.7,69.7 56.2,67.4 58,65.5 L58.3,65.2 C58.5,65 58.8,64.7 59.1,64.5 C59.2,64.5 59.2,64.4 59.2,64.3 C61.4,62.5 64.1,61.2 67.1,60.7 L67.1,64.8 C63.3,65.9 61.2,68.6 61.2,71.9 Z"/>
  </g>
</svg>
